resources/svg/artboard-line.svg

<svg fill="currentColor" viewBox="0 0 24 24" xmlns="http://www.w3.org/2000/svg"><path d="M8.58579 17H3V15H21V17H15.4142L18.6569 20.2426L17.2426 21.6569L13 17.4142V20H11V17.4142L6.75736 21.6569L5.34315 20.2426L8.58579 17ZM5 3H19C19.5523 3 20 3.44772 20 4V14H4V4C4 3.44772 4.44772 3 5 3ZM6 5V12H18V5H6Z"/></svg>

<svg xmlns="http://www.w3.org/2000/svg" viewBox="0 0 24 24" fill="currentColor">
    <g>
        <path fill="none" d="M0 0h24v24H0z"/>
        <path d="M8.586 17H3v-2h18v2h-5.586l3.243 3.243-1.414 1.414L13 17.414V20h-2v-2.586l-4.243 4.243-1.414-1.414L8.586 17zM5 3h14a1 1 0 0 1 1 1v10H4V4a1 1 0 0 1 1-1zm1 2v7h12V5H6z"/>
    </g>
</svg>
